physalisproject/media/731t.svg

<?xml version="1.0" encoding="UTF-8" standalone="no"?>
<svg
   xml:lang="en"
   height="168.86pt"
   width="128.127pt"
   viewBox="-7.2847996 -14.1986 128.127 168.86"
   version="1.1"
   id="svg24"
   sodipodi:docname="731t.svg"
   inkscape:version="1.3 (0e150ed, 2023-07-21)"
   xmlns:inkscape="http://www.inkscape.org/namespaces/inkscape"
   xmlns:sodipodi="http://sodipodi.sourceforge.net/DTD/sodipodi-0.dtd"
   xmlns="http://www.w3.org/2000/svg"
   xmlns:svg="http://www.w3.org/2000/svg">
  <defs
     id="defs24" />
  <sodipodi:namedview
     id="namedview24"
     pagecolor="#ffffff"
     bordercolor="#000000"
     borderopacity="0.25"
     inkscape:showpageshadow="2"
     inkscape:pageopacity="0.0"
     inkscape:pagecheckerboard="0"
     inkscape:deskcolor="#d1d1d1"
     inkscape:document-units="pt"
     inkscape:zoom="1.4966213"
     inkscape:cx="105.23704"
     inkscape:cy="107.57564"
     inkscape:window-width="1440"
     inkscape:window-height="819"
     inkscape:window-x="0"
     inkscape:window-y="25"
     inkscape:window-maximized="0"
     inkscape:current-layer="svg24" />
  <path
     d="m 94.8032,39.4514 a 7.695,7.695 0 1 1 0,15.39"
     style="fill:none;stroke:#000000;stroke-width:2"
     id="path1" />
  <path
     d="m 94.8032,54.8414 a 7.695,7.695 0 1 1 0,15.39"
     style="fill:none;stroke:#000000;stroke-width:2"
     id="path2" />
  <path
     d="m 94.8032,70.2314 a 7.695,7.695 0 1 1 0,15.39"
     style="fill:none;stroke:#000000;stroke-width:2"
     id="path3" />
  <path
     d="m 94.8032,85.6214 a 7.695,7.695 0 1 1 0,15.39"
     style="fill:none;stroke:#000000;stroke-width:2"
     id="path4" />
  <path
     d="M -2.3967996,-2.6686 H 42.4124 m 0,-10.53 v 21.06 m 7.5816,-21.06 v 21.06 m 0,-10.53 h 44.8092"
     style="fill:none;stroke:#000000;stroke-width:2;stroke-linecap:round;stroke-linejoin:round"
     id="path5" />
  <path
     d="m 94.8032,-2.6686 v 42.12 m 0,61.56 v 42.12"
     style="fill:none;stroke:#000000;stroke-width:2;stroke-linecap:round;stroke-linejoin:round"
     id="path6" />
  <path
     d="M 94.8032,143.1314 H 49.994 m 0,10.53 v -21.06 m -7.5816,21.06 v -21.06 m 0,10.53 H -2.3967996"
     style="fill:none;stroke:#000000;stroke-width:2;stroke-linecap:round;stroke-linejoin:round"
     id="path7" />
  <path
     d="m -2.3967996,143.1314 v -56.7 M 0.84320039,78.6554 12.1832,60.5114 m -14.5799996,-6.48 v -56.7"
     style="fill:none;stroke:#000000;stroke-width:2;stroke-linecap:round;stroke-linejoin:round"
     id="path8" />
  <g
     id="g15"
     transform="translate(-2.3967996,-2.6686)">
    <g
       id="g14">
      <g
         id="g13">
        <path
           d="m 34.785,22.992 v 0 l 0.396,0.418 q -1.122,1.32 -2.596,2.167 -1.474,0.847 -3.564,0.847 -1.98,0 -3.168,-0.737 -1.188,-0.737 -1.705,-1.969 -0.517,-1.232 -0.517,-2.684 0,-2.31 0.704,-4.103 0.704,-1.793 1.925,-3.014 1.221,-1.221 2.761,-1.848 1.54,-0.627 3.212,-0.627 1.122,0 1.749,0.198 0.627,0.198 0.979,0.407 0.352,0.209 0.616,0.209 0.264,0 0.462,-0.22 0.198,-0.22 0.462,-0.572 h 0.638 l -1.034,5.038 h -0.726 q 0.088,-2.2 -0.814,-3.157 -0.902,-0.957 -2.53,-0.957 -1.276,0 -2.398,0.583 -1.122,0.583 -1.991,1.65 -0.869,1.067 -1.364,2.552 -0.495,1.485 -0.495,3.311 0,2.2 1.045,3.355 1.045,1.155 3.223,1.155 2.53,0 4.73,-2.002 z"
           fill="#000000"
           id="path9" />
        <path
           d="m 43.088,30.802 v 0 h -5.221 v -0.554 q 1.109,0 1.471,-0.224 0.362,-0.223 0.362,-0.808 v -6.715 q 0,-0.415 -0.124,-0.6 -0.123,-0.185 -0.446,-0.185 -0.247,0 -0.67,0.069 -0.424,0.07 -0.732,0.147 v -0.616 l 2.849,-0.786 h 0.663 v 8.686 q 0,0.585 0.392,0.808 0.393,0.224 1.456,0.224 z"
           fill="#000000"
           id="path10" />
        <path
           d="m 45.813,29.086 v 0 l -0.264,-0.55 q 0.418,-0.176 0.836,-0.451 0.418,-0.275 0.704,-0.803 0.286,-0.528 0.286,-1.408 -0.352,0.132 -0.682,0.132 -0.638,0 -0.924,-0.352 -0.286,-0.352 -0.286,-0.836 0,-0.528 0.352,-0.913 0.352,-0.385 1.012,-0.385 0.836,0 1.265,0.517 0.429,0.517 0.429,1.419 0,0.924 -0.297,1.562 -0.297,0.638 -0.737,1.034 -0.44,0.396 -0.902,0.638 -0.462,0.242 -0.792,0.396 z"
           fill="#000000"
           id="path11" />
        <path
           d="m 67.909,15.798 v 0 L 65.335,28.58 q 0,0 -0.033,0.198 -0.033,0.198 -0.033,0.484 0,0.572 0.308,0.858 0.308,0.286 1.276,0.286 l -0.11,0.616 h -3.872 l 1.562,-6.71 h -0.154 q -0.594,0.792 -1.221,1.232 -0.627,0.44 -1.188,0.627 -0.561,0.187 -0.946,0.231 -0.385,0.044 -0.451,0.044 -0.88,0 -1.441,-0.517 -0.561,-0.517 -0.847,-1.397 -0.286,-0.88 -0.286,-1.958 0,-1.496 0.473,-2.761 0.473,-1.265 1.287,-2.2 0.814,-0.935 1.826,-1.452 1.012,-0.517 2.09,-0.517 0.902,0 1.474,0.308 0.572,0.308 0.858,0.682 h 0.088 l 0.858,-0.836 z m -2.53,2.816 v 0 q 0,-1.034 -0.561,-1.584 -0.561,-0.55 -1.397,-0.55 -1.056,0 -1.859,0.847 -0.803,0.847 -1.254,2.222 -0.451,1.375 -0.451,2.959 0,1.276 0.374,1.881 0.374,0.605 1.364,0.605 1.166,0 1.903,-0.737 0.737,-0.737 1.155,-1.881 0.242,-0.616 0.396,-1.342 0.154,-0.726 0.242,-1.386 0.088,-0.66 0.088,-1.034 z"
           fill="#000000"
           id="path12" />
        <path
           d="m 75.023,30.802 v 0 h -5.22 v -0.554 q 1.109,0 1.471,-0.224 0.361,-0.223 0.361,-0.808 v -6.715 q 0,-0.415 -0.123,-0.6 -0.123,-0.185 -0.446,-0.185 -0.247,0 -0.67,0.069 -0.424,0.07 -0.732,0.147 v -0.616 l 2.849,-0.786 h 0.662 v 8.686 q 0,0.585 0.393,0.808 0.393,0.224 1.455,0.224 z"
           fill="#000000"
           id="path13" />
      </g>
    </g>
  </g>
  <g
     id="g18"
     transform="translate(-2.3967996,-2.6686)">
    <g
       id="g17">
      <g
         id="g16">
        <path
           d="m 123.239,72.537 v 0 l -1.32,4.29 h -10.868 l 0.132,-0.66 q 0.858,0 1.309,-0.154 0.451,-0.154 0.693,-0.594 0.242,-0.44 0.418,-1.32 l 1.892,-9.174 q 0.154,-0.726 0.11,-1.144 -0.044,-0.418 -0.451,-0.583 -0.407,-0.165 -1.353,-0.165 l 0.132,-0.66 h 6.248 l -0.11,0.66 q -1.188,0 -1.782,0.363 -0.594,0.363 -0.836,1.551 l -2.002,9.856 q -0.154,0.726 0.154,0.957 0.308,0.231 1.276,0.231 h 1.034 q 1.056,0 1.716,-0.187 0.66,-0.187 1.122,-0.583 0.462,-0.396 0.869,-1.067 0.407,-0.671 0.913,-1.617 z"
           fill="#000000"
           id="path15" />
      </g>
    </g>
  </g>
  <g
     id="g21"
     transform="translate(-2.3967996,-2.6686)">
    <g
       id="g20">
      <g
         id="g19">
        <path
           d="m 50.637,119.948 v 0 l 0.396,0.418 q -1.122,1.32 -2.596,2.167 -1.474,0.847 -3.564,0.847 -1.98,0 -3.168,-0.737 -1.188,-0.737 -1.705,-1.969 -0.517,-1.232 -0.517,-2.684 0,-2.31 0.704,-4.103 0.704,-1.793 1.925,-3.014 1.221,-1.221 2.761,-1.848 1.54,-0.627 3.212,-0.627 1.122,0 1.749,0.198 0.627,0.198 0.979,0.407 0.352,0.209 0.616,0.209 0.264,0 0.462,-0.22 0.198,-0.22 0.462,-0.572 h 0.638 l -1.034,5.038 h -0.726 q 0.088,-2.2 -0.814,-3.157 -0.902,-0.957 -2.53,-0.957 -1.276,0 -2.398,0.583 -1.122,0.583 -1.991,1.65 -0.869,1.067 -1.364,2.552 -0.495,1.485 -0.495,3.311 0,2.2 1.045,3.355 1.045,1.155 3.223,1.155 2.53,0 4.73,-2.002 z"
           fill="#000000"
           id="path18" />
        <path
           d="m 59.818,125.078 v 0 l -0.524,2.68 H 52.98 v -0.755 l 2.187,-2.217 q 0.862,-0.863 1.424,-1.525 0.563,-0.662 0.84,-1.332 0.277,-0.67 0.277,-1.532 0,-0.816 -0.501,-1.348 -0.5,-0.531 -1.409,-0.531 -0.831,0 -1.393,0.331 -0.562,0.331 -0.994,1.086 l -0.415,-0.2 q 0.385,-1.078 1.193,-1.694 0.809,-0.616 1.994,-0.616 0.924,0 1.633,0.331 0.708,0.331 1.109,0.947 0.4,0.616 0.4,1.494 0,0.754 -0.339,1.416 -0.339,0.663 -0.962,1.356 -0.624,0.693 -1.486,1.54 l -1.925,1.863 v 0.108 l 1.201,-0.062 h 2.002 q 0.446,0 0.685,-0.123 0.239,-0.123 0.408,-0.424 0.17,-0.3 0.37,-0.793 z"
           fill="#000000"
           id="path19" />
      </g>
    </g>
  </g>
  <circle
     cx="-2.3967996"
     cy="82.543396"
     r="3.888"
     style="fill:#ffffff;stroke:#000000;stroke-width:2"
     id="circle21" />
  <circle
     cx="-2.3967996"
     cy="57.919403"
     r="3.888"
     style="fill:#ffffff;stroke:#000000;stroke-width:2"
     id="circle22" />
  <g
     id="g24"
     transform="translate(-2.3967996,-2.6686)">
    <g
       id="g23">
      <g
         id="g22">
        <path
           d="m 20.394,73.945 v 0 l 1.804,-8.668 q 0.176,-0.858 0.154,-1.353 -0.022,-0.495 -0.418,-0.693 -0.396,-0.198 -1.364,-0.198 l 0.132,-0.66 h 6.204 l -0.11,0.66 q -1.034,0 -1.54,0.198 -0.506,0.198 -0.715,0.693 -0.209,0.495 -0.385,1.353 l -0.836,4.114 h 0.088 l 4.202,-3.454 q 0.968,-0.77 1.551,-1.342 0.583,-0.572 0.583,-1.056 0,-0.506 -0.814,-0.506 h -0.374 l 0.154,-0.66 h 5.17 l -0.11,0.66 q -0.616,0.044 -1.045,0.187 -0.429,0.143 -0.869,0.429 -0.44,0.286 -1.122,0.836 l -5.676,4.576 4.862,6.16 q 0.44,0.528 0.979,0.737 0.539,0.209 1.353,0.209 l -0.132,0.66 h -6.336 l 0.11,-0.66 h 0.286 q 0.506,0 0.781,-0.132 0.275,-0.132 0.275,-0.506 0,-0.352 -0.209,-0.803 -0.209,-0.451 -0.726,-1.177 -0.517,-0.726 -1.463,-1.848 l -1.386,-1.672 h -0.264 l -0.792,3.916 q -0.176,0.946 -0.154,1.419 0.022,0.473 0.451,0.638 0.429,0.165 1.397,0.165 l -0.132,0.66 H 17.82 l 0.132,-0.66 q 0.924,0 1.375,-0.165 0.451,-0.165 0.66,-0.638 0.209,-0.473 0.407,-1.419 z"
           fill="#000000"
           id="path22" />
      </g>
    </g>
  </g>
</svg>

<svg xmlns="http://www.w3.org/2000/svg" xml:lang="en" height="174.19719999999998pt" width="146.47356111186602pt" viewBox="-7.2847996187438095 -14.198599999999999 146.47356111186602 174.19719999999998"><path d="M 97.2 42.12 a 7.694999999999999 7.694999999999999 -270 1 1 0.0 15.39" style="stroke:black;fill:none;stroke-width:2.0;" /><path d="M 97.2 57.51 a 7.694999999999999 7.694999999999999 -270 1 1 0.0 15.390000000000008" style="stroke:black;fill:none;stroke-width:2.0;" /><path d="M 97.2 72.9 a 7.694999999999999 7.694999999999999 -270 1 1 0.0 15.39" style="stroke:black;fill:none;stroke-width:2.0;" /><path d="M 97.2 88.29 a 7.694999999999999 7.694999999999999 -270 1 1 0.0 15.39" style="stroke:black;fill:none;stroke-width:2.0;" /><path d="M 0.0,-0.0 L 44.8092,-0.0 M 44.8092,-10.53 L 44.8092,10.53 M 52.3908,-10.53 L 52.3908,10.53 M 52.3908,-0.0 L 97.19999999999999,-0.0" style="stroke:black;fill:none;stroke-width:2.0;stroke-linecap:round;stroke-linejoin:round;" /><path d="M 97.19999999999999,-0.0 L 97.19999999999997,42.12 M 97.19999999999997,103.67999999999999 L 97.19999999999996,145.79999999999995" style="stroke:black;fill:none;stroke-width:2.0;stroke-linecap:round;stroke-linejoin:round;" /><path d="M 97.19999999999996,145.79999999999995 L 52.39079999999997,145.79999999999995 M 52.39079999999997,156.32999999999998 L 52.39079999999997,135.26999999999995 M 44.80919999999997,156.32999999999998 L 44.80919999999997,135.26999999999995 M 44.80919999999997,145.79999999999995 L -2.8776980798284056e-14,145.79999999999995" style="stroke:black;fill:none;stroke-width:2.0;stroke-linecap:round;stroke-linejoin:round;" /><path d="M -2.8776980798284056e-14,145.79999999999995 L -2.5305107122701308e-14,89.09999999999997 M 3.2399999999999753,81.32399999999996 L 14.579999999999977,63.17999999999997 M -2.33211793080826e-14,56.69999999999997 L -1.9849305632499852e-14,-2.8776980798284056e-14" style="stroke:black;fill:none;stroke-width:2.0;stroke-linecap:round;stroke-linejoin:round;" /><g><g><g><path d="M 34.785 22.992 L 34.785 22.992 L 35.181 23.41 Q 34.059 24.73 32.585 25.577 Q 31.111 26.424 29.021 26.424 Q 27.041 26.424 25.853 25.687 Q 24.665 24.95 24.148 23.718 Q 23.631 22.486 23.631 21.034 Q 23.631 18.724 24.335 16.931 Q 25.039 15.138 26.26 13.917 Q 27.481 12.696 29.021 12.069 Q 30.561 11.442 32.233 11.442 Q 33.355 11.442 33.982 11.64 Q 34.609 11.838 34.961 12.047 Q 35.313 12.256 35.577 12.256 Q 35.841 12.256 36.039 12.036 Q 36.237 11.816 36.501 11.464 L 37.139 11.464 L 36.105 16.502 L 35.379 16.502 Q 35.467 14.302 34.565 13.345 Q 33.663 12.388 32.035 12.388 Q 30.759 12.388 29.637 12.971 Q 28.515 13.554 27.646 14.621 Q 26.777 15.688 26.282 17.173 Q 25.787 18.658 25.787 20.484 Q 25.787 22.684 26.832 23.839 Q 27.877 24.994 30.055 24.994 Q 32.585 24.994 34.785 22.992 Z " fill="black" /><path d="M 43.088 30.802 L 43.088 30.802 L 37.867 30.802 L 37.867 30.248 Q 38.976 30.248 39.338 30.024 Q 39.7 29.801 39.7 29.216 L 39.7 22.501 Q 39.7 22.086 39.576 21.901 Q 39.453 21.716 39.13 21.716 Q 38.883 21.716 38.46 21.785 Q 38.036 21.855 37.728 21.932 L 37.728 21.316 L 40.577 20.53 L 41.24 20.53 L 41.24 29.216 Q 41.24 29.801 41.632 30.024 Q 42.025 30.248 43.088 30.248 Z " fill="black" /><path d="M 45.813 29.086 L 45.813 29.086 L 45.549 28.536 Q 45.967 28.36 46.385 28.085 Q 46.803 27.81 47.089 27.282 Q 47.375 26.754 47.375 25.874 Q 47.023 26.006 46.693 26.006 Q 46.055 26.006 45.769 25.654 Q 45.483 25.302 45.483 24.818 Q 45.483 24.29 45.835 23.905 Q 46.187 23.52 46.847 23.52 Q 47.683 23.52 48.112 24.037 Q 48.541 24.554 48.541 25.456 Q 48.541 26.38 48.244 27.018 Q 47.947 27.656 47.507 28.052 Q 47.067 28.448 46.605 28.69 Q 46.143 28.932 45.813 29.086 Z " fill="black" /><path d="M 67.909 15.798 L 67.909 15.798 L 65.335 28.58 Q 65.335 28.58 65.302 28.778 Q 65.269 28.976 65.269 29.262 Q 65.269 29.834 65.577 30.12 Q 65.885 30.406 66.853 30.406 L 66.743 31.022 L 62.871 31.022 L 64.433 24.312 L 64.279 24.312 Q 63.685 25.104 63.058 25.544 Q 62.431 25.984 61.87 26.171 Q 61.309 26.358 60.924 26.402 Q 60.539 26.446 60.473 26.446 Q 59.593 26.446 59.032 25.929 Q 58.471 25.412 58.185 24.532 Q 57.899 23.652 57.899 22.574 Q 57.899 21.078 58.372 19.813 Q 58.845 18.548 59.659 17.613 Q 60.473 16.678 61.485 16.161 Q 62.497 15.644 63.575 15.644 Q 64.477 15.644 65.049 15.952 Q 65.621 16.26 65.907 16.634 L 65.995 16.634 L 66.853 15.798 Z M 65.379 18.614 L 65.379 18.614 Q 65.379 17.58 64.818 17.03 Q 64.257 16.48 63.421 16.48 Q 62.365 16.48 61.562 17.327 Q 60.759 18.174 60.308 19.549 Q 59.857 20.924 59.857 22.508 Q 59.857 23.784 60.231 24.389 Q 60.605 24.994 61.595 24.994 Q 62.761 24.994 63.498 24.257 Q 64.235 23.52 64.653 22.376 Q 64.895 21.76 65.049 21.034 Q 65.203 20.308 65.291 19.648 Q 65.379 18.988 65.379 18.614 Z " fill="black" /><path d="M 75.023 30.802 L 75.023 30.802 L 69.803 30.802 L 69.803 30.248 Q 70.912 30.248 71.274 30.024 Q 71.635 29.801 71.635 29.216 L 71.635 22.501 Q 71.635 22.086 71.512 21.901 Q 71.389 21.716 71.066 21.716 Q 70.819 21.716 70.396 21.785 Q 69.972 21.855 69.664 21.932 L 69.664 21.316 L 72.513 20.53 L 73.175 20.53 L 73.175 29.216 Q 73.175 29.801 73.568 30.024 Q 73.961 30.248 75.023 30.248 Z " fill="black" /></g></g></g><g><g><g><path d="M 123.239 72.537 L 123.239 72.537 L 121.919 76.827 L 111.051 76.827 L 111.183 76.167 Q 112.041 76.167 112.492 76.013 Q 112.943 75.859 113.185 75.419 Q 113.427 74.979 113.603 74.099 L 115.495 64.925 Q 115.649 64.199 115.605 63.781 Q 115.561 63.363 115.154 63.198 Q 114.747 63.033 113.801 63.033 L 113.933 62.373 L 120.181 62.373 L 120.071 63.033 Q 118.883 63.033 118.289 63.396 Q 117.695 63.759 117.453 64.947 L 115.451 74.803 Q 115.297 75.529 115.605 75.76 Q 115.913 75.991 116.881 75.991 L 117.915 75.991 Q 118.971 75.991 119.631 75.804 Q 120.291 75.617 120.753 75.221 Q 121.215 74.825 121.622 74.154 Q 122.029 73.483 122.535 72.537 Z " fill="black" /></g></g></g><g><g><g><path d="M 50.637 119.948 L 50.637 119.948 L 51.033 120.366 Q 49.911 121.686 48.437 122.533 Q 46.963 123.38 44.873 123.38 Q 42.893 123.38 41.705 122.643 Q 40.517 121.906 40 120.674 Q 39.483 119.442 39.483 117.99 Q 39.483 115.68 40.187 113.887 Q 40.891 112.094 42.112 110.873 Q 43.333 109.652 44.873 109.025 Q 46.413 108.398 48.085 108.398 Q 49.207 108.398 49.834 108.596 Q 50.461 108.794 50.813 109.003 Q 51.165 109.212 51.429 109.212 Q 51.693 109.212 51.891 108.992 Q 52.089 108.772 52.353 108.42 L 52.991 108.42 L 51.957 113.458 L 51.231 113.458 Q 51.319 111.258 50.417 110.301 Q 49.515 109.344 47.887 109.344 Q 46.611 109.344 45.489 109.927 Q 44.367 110.51 43.498 111.577 Q 42.629 112.644 42.134 114.129 Q 41.639 115.614 41.639 117.44 Q 41.639 119.64 42.684 120.795 Q 43.729 121.95 45.907 121.95 Q 48.437 121.95 50.637 119.948 Z " fill="black" /><path d="M 59.818 125.078 L 59.818 125.078 L 59.294 127.758 L 52.98 127.758 L 52.98 127.003 L 55.167 124.786 Q 56.029 123.923 56.591 123.261 Q 57.154 122.599 57.431 121.929 Q 57.708 121.259 57.708 120.397 Q 57.708 119.581 57.207 119.049 Q 56.707 118.518 55.798 118.518 Q 54.967 118.518 54.405 118.849 Q 53.843 119.18 53.411 119.935 L 52.996 119.735 Q 53.381 118.657 54.189 118.041 Q 54.998 117.425 56.183 117.425 Q 57.107 117.425 57.816 117.756 Q 58.524 118.087 58.925 118.703 Q 59.325 119.319 59.325 120.197 Q 59.325 120.951 58.986 121.613 Q 58.647 122.276 58.024 122.969 Q 57.4 123.662 56.538 124.509 L 54.613 126.372 L 54.613 126.48 L 55.814 126.418 L 57.816 126.418 Q 58.262 126.418 58.501 126.295 Q 58.74 126.172 58.909 125.871 Q 59.079 125.571 59.279 125.078 Z " fill="black" /></g></g></g><circle cx="-2.5067035784947065e-14" cy="85.21199999999996" r="3.888" style="stroke:black;fill:white;stroke-width:2.0;" /><circle cx="-2.3559250645836844e-14" cy="60.58799999999997" r="3.888" style="stroke:black;fill:white;stroke-width:2.0;" /><g><g><g><path d="M 20.394 73.945 L 20.394 73.945 L 22.198 65.277 Q 22.374 64.419 22.352 63.924 Q 22.33 63.429 21.934 63.231 Q 21.538 63.033 20.57 63.033 L 20.702 62.373 L 26.906 62.373 L 26.796 63.033 Q 25.762 63.033 25.256 63.231 Q 24.75 63.429 24.541 63.924 Q 24.332 64.419 24.156 65.277 L 23.32 69.391 L 23.408 69.391 L 27.61 65.937 Q 28.578 65.167 29.161 64.595 Q 29.744 64.023 29.744 63.539 Q 29.744 63.033 28.93 63.033 L 28.556 63.033 L 28.71 62.373 L 33.88 62.373 L 33.77 63.033 Q 33.154 63.077 32.725 63.22 Q 32.296 63.363 31.856 63.649 Q 31.416 63.935 30.734 64.485 L 25.058 69.061 L 29.92 75.221 Q 30.36 75.749 30.899 75.958 Q 31.438 76.167 32.252 76.167 L 32.12 76.827 L 25.784 76.827 L 25.894 76.167 L 26.18 76.167 Q 26.686 76.167 26.961 76.035 Q 27.236 75.903 27.236 75.529 Q 27.236 75.177 27.027 74.726 Q 26.818 74.275 26.301 73.549 Q 25.784 72.823 24.838 71.701 L 23.452 70.029 L 23.188 70.029 L 22.396 73.945 Q 22.22 74.891 22.242 75.364 Q 22.264 75.837 22.693 76.002 Q 23.122 76.167 24.09 76.167 L 23.958 76.827 L 17.82 76.827 L 17.952 76.167 Q 18.876 76.167 19.327 76.002 Q 19.778 75.837 19.987 75.364 Q 20.196 74.891 20.394 73.945 Z " fill="black" /></g></g></g></svg>
